img/compliance.svg

<svg width="48" height="48" viewBox="0 0 48 48" fill="none" xmlns="http://www.w3.org/2000/svg">
<g clip-path="url(#clip0)">
<path d="M46.967 25.747C50.602 12.625 44.314 0 33.295 0C27.198 0 24.595 3.504 17.898 11.663C11.2 19.822 1.65 8.478 0 25.747C1.386 41.66 18.652 56.064 26.668 42.774C33.966 30.674 43.333 38.868 46.968 25.747H46.967Z" fill="#FFDD76"/>
<path d="M21.65 14.5588H22.175L22.374 14.0738C22.704 13.2678 23.284 12.7808 24 12.7808C24.716 12.7808 25.296 13.2678 25.626 14.0738L25.825 14.5588H32C32.257 14.5588 32.495 14.6388 32.692 14.7738H28.674V18.3298H19.327V14.7738H15.308C15.505 14.6378 15.743 14.5588 16 14.5588H19.455H21.65ZM32.963 15.5558V15.0308C33.123 15.2368 33.219 15.4958 33.219 15.7778V33.9998C33.219 34.2808 33.123 34.5398 32.963 34.7468V34.2218V15.5558ZM32.182 35.0038H32.692C32.4886 35.1442 32.2472 35.2192 32 35.2188H16C15.7529 35.2188 15.5116 35.1439 15.308 35.0038H15.818H32.182ZM15.037 34.2218V34.7468C14.8705 34.5334 14.78 34.2705 14.78 33.9998V15.7778C14.78 15.4958 14.876 15.2378 15.036 15.0308V15.5558L15.037 34.2218ZM28.417 15.5558V14.7738H25.69V14.6668C25.69 13.7168 24.928 12.9968 24 12.9968C23.072 12.9968 22.31 13.7168 22.31 14.6668V14.7738H19.582V18.1148H28.418V17.3328L28.417 15.5558ZM22.545 29.0788L23.091 29.6128L23.637 29.0788L28.812 24.0188L28.98 24.1838L23.09 29.9418L19.93 26.8508L20.097 26.6858L22.545 29.0788Z" fill="#63522B" stroke="#63522B" stroke-width="1.563"/>
</g>
<defs>
<clipPath id="clip0">
<rect width="48" height="48" fill="white"/>
</clipPath>
</defs>
</svg>

<svg width="48" height="48" fill="none" xmlns="http://www.w3.org/2000/svg"><g clip-path="url(#clip0)"><path d="M46.967 25.747C50.602 12.625 44.314 0 33.295 0c-6.097 0-8.7 3.504-15.397 11.663C11.2 19.822 1.65 8.478 0 25.747 1.386 41.66 18.652 56.064 26.668 42.774c7.298-12.1 16.665-3.906 20.3-17.027h-.001z" fill="#FFDD76"/><path d="M21.65 14.559h.525l.199-.485c.33-.806.91-1.293 1.626-1.293.716 0 1.296.487 1.626 1.293l.199.485H32c.257 0 .495.08.692.215h-4.018v3.556h-9.347v-3.556h-4.019c.197-.136.435-.215.692-.215h5.65zm11.313.997v-.525c.16.206.256.465.256.747V34c0 .28-.096.54-.256.747V15.556zm-.781 19.448h.51c-.203.14-.445.215-.692.215H16a1.22 1.22 0 01-.692-.215H32.182zm-17.145-.782v.525A1.214 1.214 0 0114.78 34V15.778c0-.282.096-.54.256-.747v.525l.001 18.666zm13.38-18.666v-.782H25.69v-.107c0-.95-.762-1.67-1.69-1.67-.928 0-1.69.72-1.69 1.67v.107h-2.728v3.34h8.836v-.781l-.001-1.777zm-5.872 13.523l.546.534.546-.534 5.175-5.06.168.165-5.89 5.758-3.16-3.091.167-.165 2.448 2.393z" fill="#63522B" stroke="#63522B" stroke-width="1.563"/></g><defs><clipPath id="clip0"><path fill="#fff" d="M0 0h48v48H0z"/></clipPath></defs></svg>
